X: 1
T: Senpolska efter G\"oran L\aang (Haver\"o)
D: CD Cintern by AER
S: transcribed by Bruce Sagan
R: polka
Z: 2022 John Chambers <jc:trillian.mit.edu>
M: 3/4
L: 1/16
K: Dm
|: a3a g2a2 f4 | f3e d2eg f4 |[1,3 fgfe d2eg f2ed | ^c2=Bc d2d2 A4 :|[2,4 f3e d2eg f2ed | ^c2=Bc d8 :|
|: A3^c c2d2 d2e2 | e3g f2ed e4 | e3a e2g2 f2ed |[1,3 ^c2=Bc d2d2 A4 :|[2,4 ^c2=Bc d8 :|
